mimetypes/symbolic/x-office-document-symbolic.svg

<?xml version="1.0" encoding="UTF-8" standalone="no"?>
<!-- Created with Inkscape (http://www.inkscape.org/) -->

<svg
   xmlns:osb="http://www.openswatchbook.org/uri/2009/osb"
   xmlns:dc="http://purl.org/dc/elements/1.1/"
   xmlns:cc="http://creativecommons.org/ns#"
   xmlns:rdf="http://www.w3.org/1999/02/22-rdf-syntax-ns#"
   xmlns:svg="http://www.w3.org/2000/svg"
   xmlns="http://www.w3.org/2000/svg"
   xmlns:sodipodi="http://sodipodi.sourceforge.net/DTD/sodipodi-0.dtd"
   xmlns:inkscape="http://www.inkscape.org/namespaces/inkscape"
   sodipodi:docname="x-office-document-symbolic.svg"
   inkscape:export-filename="/home/sam/source-symbolic.png"
   inkscape:export-xdpi="270"
   inkscape:export-ydpi="270"
   height="16"
   id="svg7384"
   style="enable-background:new"
   version="1.1"
   inkscape:version="0.91 r13725"
   width="16">
  <sodipodi:namedview
     inkscape:bbox-nodes="true"
     inkscape:bbox-paths="false"
     bordercolor="#666666"
     borderlayer="false"
     borderopacity="1"
     inkscape:current-layer="svg7384"
     inkscape:cx="-1.9305809"
     inkscape:cy="9.5812392"
     gridtolerance="10"
     inkscape:guide-bbox="true"
     guidetolerance="10"
     id="namedview88"
     inkscape:object-nodes="true"
     inkscape:object-paths="true"
     objecttolerance="10"
     pagecolor="#f7f7f7"
     inkscape:pageopacity="1"
     inkscape:pageshadow="2"
     showborder="true"
     showgrid="false"
     showguides="true"
     inkscape:showpageshadow="false"
     inkscape:snap-bbox="true"
     inkscape:snap-bbox-edge-midpoints="false"
     inkscape:snap-bbox-midpoints="true"
     inkscape:snap-center="false"
     inkscape:snap-global="true"
     inkscape:snap-grids="true"
     inkscape:snap-intersection-paths="true"
     inkscape:snap-midpoints="true"
     inkscape:snap-nodes="true"
     inkscape:snap-object-midpoints="true"
     inkscape:snap-others="true"
     inkscape:snap-page="false"
     inkscape:snap-smooth-nodes="true"
     inkscape:snap-to-guides="true"
     inkscape:window-height="642"
     inkscape:window-maximized="1"
     inkscape:window-width="1366"
     inkscape:window-x="0"
     inkscape:window-y="33"
     inkscape:zoom="31.999999">
    <inkscape:grid
       color="#000000"
       dotted="false"
       empcolor="#0800ff"
       empopacity="0.4627451"
       empspacing="4"
       enabled="true"
       id="grid4866"
       opacity="0.16470588"
       originx="-463.99998"
       originy="-548.00336"
       snapvisiblegridlinesonly="true"
       spacingx="0.25px"
       spacingy="0.25px"
       type="xygrid"
       visible="true" />
  </sodipodi:namedview>
  <metadata
     id="metadata90">
    <rdf:RDF>
      <cc:Work
         rdf:about="">
        <dc:format>image/svg+xml</dc:format>
        <dc:type
           rdf:resource="http://purl.org/dc/dcmitype/StillImage" />
        <dc:title>Paper Symbolic Icon Theme</dc:title>
      </cc:Work>
    </rdf:RDF>
  </metadata>
  <title
     id="title8473">Paper Symbolic Icon Theme</title>
  <defs
     id="defs7386">
    <linearGradient
       id="linearGradient5606"
       osb:paint="solid">
      <stop
         id="stop5608"
         offset="0"
         style="stop-color:#000000;stop-opacity:1;" />
    </linearGradient>
    <linearGradient
       id="linearGradient4207"
       osb:paint="gradient">
      <stop
         style="stop-color:#3498db;stop-opacity:1;"
         offset="0"
         id="stop3371" />
      <stop
         style="stop-color:#3498db;stop-opacity:0;"
         offset="1"
         id="stop3373" />
    </linearGradient>
  </defs>
  <path
     style="opacity:1;fill:#bebebe;fill-opacity:1;fill-rule:evenodd;stroke:none;stroke-width:1px;stroke-linecap:butt;stroke-linejoin:miter;stroke-opacity:1"
     d="M 11.921875 1.7382812 L 7.4355469 2.1601562 L 2.8066406 2.1601562 C 2.2345984 2.117758 2.0039062 2.1692039 2.0039062 2.6875 L 2.0039062 12.652344 C 1.9679764 13.221112 2.2054608 13.208984 2.7617188 13.208984 L 7.4863281 13.208984 L 11.958984 13.732422 C 12.30501 13.732422 12.422167 13.614076 12.458984 13.388672 L 12.863281 13.388672 C 12.955321 13.388672 13.031522 13.391459 13.111328 13.380859 C 13.191138 13.370199 13.288154 13.338289 13.355469 13.261719 C 13.422779 13.185149 13.446499 13.093074 13.457031 12.996094 C 13.467331 12.901244 13.464784 12.789451 13.458984 12.648438 L 13.458984 12.640625 L 13.458984 2.6855469 C 13.458984 2.4227737 13.480165 2.2576999 13.359375 2.0996094 C 13.298985 2.0205644 13.197164 1.977521 13.111328 1.9667969 C 13.025488 1.9560729 12.943811 1.9635294 12.84375 1.9746094 L 12.863281 1.9726562 L 12.466797 1.9726562 C 12.416003 1.7809239 12.288586 1.7102599 11.921875 1.7382812 z M 13.068359 2.3203125 C 13.058659 2.3075825 13.09375 2.4300238 13.09375 2.6855469 L 13.09375 12.652344 L 13.09375 12.65625 C 13.09965 12.794971 13.098397 12.896304 13.091797 12.957031 C 13.085197 13.017761 13.072618 13.028021 13.080078 13.019531 C 13.087578 13.011031 13.100813 13.012778 13.064453 13.017578 C 13.028103 13.022478 12.957292 13.023437 12.863281 13.023438 L 12.472656 13.023438 C 12.470658 12.982836 12.47147 12.952594 12.46875 12.908203 L 12.505859 2.3671875 C 12.505859 2.3561798 12.503937 2.3505235 12.503906 2.3398438 L 12.873047 2.3398438 L 12.882812 2.3378906 C 12.974074 2.3277786 13.038848 2.3266321 13.066406 2.3300781 C 13.093966 2.3335181 13.073159 2.3266825 13.068359 2.3203125 z M 4.84375 5.0234375 L 9.9277344 5.0234375 C 10.005697 5.0234375 10.068359 5.0861002 10.068359 5.1640625 L 10.068359 5.8886719 C 10.068359 5.9666342 10.005697 6.0292969 9.9277344 6.0292969 L 4.84375 6.0292969 C 4.7657877 6.0292969 4.703125 5.9666342 4.703125 5.8886719 L 4.703125 5.1640625 C 4.703125 5.0861002 4.7657877 5.0234375 4.84375 5.0234375 z M 4.8476562 6.515625 L 9.9335938 6.515625 C 10.011556 6.515625 10.074219 6.5782877 10.074219 6.65625 L 10.074219 7.3808594 C 10.074219 7.4588217 10.011556 7.5214844 9.9335938 7.5214844 L 4.8476562 7.5214844 C 4.7696941 7.5214844 4.7070312 7.4588217 4.7070312 7.3808594 L 4.7070312 6.65625 C 4.7070312 6.5782877 4.7696941 6.515625 4.8476562 6.515625 z M 4.8574219 7.9316406 L 9.9414062 7.9316406 C 10.019369 7.9316406 10.082031 7.9943033 10.082031 8.0722656 L 10.082031 8.796875 C 10.082031 8.8748373 10.019369 8.9375 9.9414062 8.9375 L 4.8574219 8.9375 C 4.7794596 8.9375 4.7167969 8.8748373 4.7167969 8.796875 L 4.7167969 8.0722656 C 4.7167969 7.9943033 4.7794596 7.9316406 4.8574219 7.9316406 z M 4.8457031 9.4023438 L 9.9316406 9.4023438 C 10.009603 9.4023438 10.072266 9.4650064 10.072266 9.5429688 L 10.072266 10.267578 C 10.072266 10.34554 10.009603 10.410156 9.9316406 10.410156 L 4.8457031 10.410156 C 4.7677408 10.410156 4.7050781 10.34554 4.7050781 10.267578 L 4.7050781 9.5429688 C 4.7050781 9.4650065 4.7677408 9.4023438 4.8457031 9.4023438 z "
     id="path4248" />
</svg>

<svg xmlns="http://www.w3.org/2000/svg" viewBox="0 0 16 16">
  <path fill="#bebebe" d="M11.922 1.738l-4.486.422H2.807c-.572-.042-.803.009-.803.528v9.964c-.036.569.201.557.758.557h4.724l4.473.523c.346 0 .463-.118.5-.343h.404c.092 0 .169.002.248-.008a.394.394 0 0 0 .244-.119.46.46 0 0 0 .102-.266 2.46 2.46 0 0 0 .002-.348V2.686c0-.263.021-.428-.1-.586-.06-.079-.162-.122-.248-.133s-.167-.003-.267.008l.019-.002h-.396c-.051-.192-.178-.263-.545-.235zm1.146.582c-.009-.012.026.11.026.366v9.97c.006.139.004.24-.002.301-.007.061-.019.071-.012.063.008-.009.021-.007-.016-.002a2.362 2.362 0 0 1-.201.005h-.39l-.004-.115.037-10.541-.002-.027h.369l.01-.002c.091-.01.156-.011.183-.008.028.004.007-.003.002-.01zM4.844 5.023h5.084a.14.14 0 0 1 .14.141v.725a.14.14 0 0 1-.14.14H4.844a.14.14 0 0 1-.141-.14v-.725a.14.14 0 0 1 .141-.141zm.004 1.493h5.086a.14.14 0 0 1 .14.14v.725a.14.14 0 0 1-.14.14H4.848a.14.14 0 0 1-.141-.14v-.725a.14.14 0 0 1 .141-.14zm.009 1.416h5.084a.14.14 0 0 1 .141.14v.725a.14.14 0 0 1-.141.141H4.857a.14.14 0 0 1-.14-.141v-.725a.14.14 0 0 1 .14-.14zm-.011 1.47h5.086a.14.14 0 0 1 .14.141v.725a.14.14 0 0 1-.14.142H4.846a.142.142 0 0 1-.141-.142v-.725a.14.14 0 0 1 .141-.141z"/>
</svg>
